X:1
T:The Glory of the Welcome
T:The Glory of the Welcome
T:Ephraim Timothy Hildebrand
T:Walter Lomax Childress, 1898
T:Public Domain Courtesy of the Cyber Hymnal™
T:Public Domain Courtesy of the Cyber Hymnal™
C:Ephraim Timothy Hildebrand
Z:Public Domain
Z:Courtesy of the Cyber Hymnal™
%%score ( 1 2 ) ( 3 4 )
L:1/8
Q:1/4=90
M:4/4
K:Bb
V:1 treble 
V:2 treble 
V:3 bass 
V:4 bass 
V:1
 [B,D][CE] | [DF][DF][DF][DF] [DF][CE][B,D][DF] | [DB][DB][FA][EG] [DF]2 [B,D][CE] | %3
w: 1.~When the|lamp of faith has light- ed bright The|tra- veler to his goal, And it|
w: 2.~All the|loved of life shall meet us, Who have|gone the way be- fore, And the|
w: 3.~Oh, the|hour is draw- ing near- er To the|day of peace and rest, When the|
 [DF][DF][DF][DF] [DB][DB][CA][DB] | [Fc][Fc][FB][Fc] [Fd]2 [B,D][CE] | %5
w: falls up- on the ri- ver, And the|waves be- gin to roll, Lo, be-|
w: mo- ther’s song shall greet us, There up-|on the o- ther shore, And the|
w: ship of God shall an- chor In the|har- bor of the blest, And the|
 [DF][DF][DF][DF] [DF][CE][B,D][DF] | [DB][DB][FA][EG] [DF]2 [DF][DF] | %7
w: yond the Jor- dan bil- lows Are the|bright e- ter- nal strands; What a|
w: sis- ter and the bro- ther, There a-|mong the an- gel bands, And the|
w: good of all the ag- es Meet us|on the gold- en sands; Oh, the|
 [DB][DB][DB][Ec] [Fd][Fc][GB][EG] | [DF][DF][CG][EA] !fermata![DB]2 ||"^Refrain" z2 | %10
w: glo- ry in the wel- come, And the|clasp- ing of the hands!||
w: lit- tle child that left us, Sweet the|clasp- ing of the hands!||
w: glo- ry of the Fa- ther, And the|clasp- ing of the hands!||
 z2 [Fd][Fc] [FB][FB][FB][DB] | [Ec][FB][FA][FG] F[FB] z2 | z2 [Ge][Gd] [Gc][Gc][Fc][=Ec] | %13
w: What a glo- ry in the|wel- come, in the wel- come,|And the clasp- ing of the|
w: |||
w: |||
 (cG)[EA][DB] [Fc]2 z2 | z2 [FA][FB] [Fc][FA] z2 | z2 [FB][Fc] [Fd][FB] z2 | %16
w: hands, * of the hands,|And the wel- come,|of the Fa- ther,|
w: |||
w: |||
 z2 [Fc][Fc] [Fc][Fc][=Ec][Ec] | [Fc]2 [Bd][Bd] !fermata![Ae]2 | [B,D][CE] | %19
w: In the sin- less sum- mer-|lands, sum- mer- lands;|What a|
w: |||
w: |||
 [DF][DF][DF][DF] [DF][CE][B,D][DF] | [DB][DB][FA][EG] [DF]2 [DF][DF] | %21
w: glo- ry in the king- dom, When the|toil of life is o’er! What a|
w: ||
w: ||
 [DB][DB][DB][Ec] [Fd][Ec][GB][EG] | [DF][DF][CG][EA] !fermata![DB]2 |] %23
w: glo- ry of the right- eous, On the|bright e- ter- nal shore!|
w: ||
w: ||
V:2
 x2 | x8 | x8 | x8 | x8 | x8 | x8 | x8 | x6 || x2 | x8 | x4 F x3 | x8 | E2 x6 | x8 | x8 | x8 | x6 | %18
 x2 | x8 | x8 | x8 | x6 |] %23
V:3
 [B,,F,][B,,F,] | [B,,B,][B,,B,][B,,B,][B,,B,] [B,,B,][B,,B,][B,,F,][B,,F,] | %2
w: ~ ~|~ ~ ~ ~ ~ ~ ~ ~|
 [B,,F,][B,,F,][B,,G,][B,,A,] [B,,B,]2 [B,,F,][B,,F,] | %3
w: ~ ~ ~ ~ ~ ~ ~|
 [B,,B,][B,,B,][B,,B,][B,,B,] [B,,F,][B,,F,][B,,F,][B,,F,] | %4
w: ~ ~ ~ ~ ~ ~ ~ ~|
 [F,A,][F,A,][D,B,][F,A,] B,2 [B,,F,][B,,F,] | %5
w: ~ ~ ~ ~ ~ ~ ~|
 [B,,B,][B,,B,][B,,B,][B,,B,] [B,,B,][B,,B,][B,,F,][B,,F,] | %6
w: ~ ~ ~ ~ ~ ~ ~ ~|
 [B,,F,][B,,F,][B,,F,][B,,A,] [B,,B,]2 [B,,B,][B,,B,] | %7
w: ~ ~ ~ ~ ~ ~ ~|
 [B,,F,][B,,F,][B,,F,][B,,F,] [B,,B,][D,B,][E,B,][E,B,] | %8
w: ~ ~ ~ ~ ~ ~ ~ ~|
 [F,B,][F,B,][F,,F,][F,,F,] !fermata![B,,F,]2 || B,,D, | (z2 B,B,) (B,B,)D,F, | %11
w: ~ ~ ~ ~ ~|What a|* * glo- * ry in|
 (z2 B,B,) (DD) (3:2:1F, x4/3 | (z2 CC) (B,B,)A,G, | (z2 CB, A,2) F,G, | z2 CD (EC)F,G, | %15
w: * * the * wel-|* * come, * And the|* * * clasp- ing|* * of * the hands,|
 (z2 D) (EFD) (3:2:1B, x4/3 | (z2 C)[C,C] (CC) (B,B,) | [F,A,]2 [F,B,][F,B,] C2 | [D,F,][C,F,] | %19
w: * And * * the|* wel- come * of *|the Fa- ther, In|the sin-|
 [B,,B,][B,,B,][B,,B,][B,,B,] [B,,B,][B,,B,][B,,F,][B,,F,] | %20
w: less sum- mer lands, sum- mer lands, *|
 [B,,F,][B,,F,][B,,G,][B,,A,] [B,,B,]2 [B,,B,][B,,B,] | %21
w: |
 [B,,F,][B,,F,][B,,F,][B,,F,] [B,,B,][D,B,][E,B,][E,B,] | %22
w: |
 [F,B,][F,B,][F,,F,][F,,F,] !fermata![B,,F,]2 |] %23
w: |
V:4
 x2 | x8 | x8 | x8 | x4 B,2 x2 | x8 | x8 | x8 | x6 || x2 | (F,4 D,2) x2 | %11
 (B,4 F,2) (3:2:2(D,E,) x2/3 | (G,4 E,2) x2 | F,6 x2 | (E,4 C,2) x2 | (D,4 B,2) (3:2:2(D,F,) x2/3 | %16
 (A,3 A,2) G,2 x | x4 (F,E,) | x2 | x8 | x8 | x8 | x6 |] %23

